static/img/wave-bg.svg

<svg xmlns="http://www.w3.org/2000/svg" width="2000" height="560" fill="none"><g clip-path="url(#a)"><mask id="c" width="1782" height="554" x="341" y="0" maskUnits="userSpaceOnUse" style="mask-type:alpha"><path fill="url(#b)" d="M0 0h1782v554H0z" transform="translate(341)"/></mask><g mask="url(#c)"><path fill="#2A2A5B" d="M-30 78.789c206.587 5.217 350 10.71 488.34-116.607C857-264.002 789.913 174.836 996.5 150.901c161.5-21.401 126-292.401 447-292.401 182.5-1 203 9.998 203 9.998v756.5L-29 661.498l-1-582.709Z"/><path fill="#151533" d="M-150.5 377.045C91.26 389.837 130.04 263.312 371.8 267.11c241.76 3.798 362.639 143.715 604.399 128.923 241.761-14.791 362.641-209.275 604.401-202.879 241.76 6.397 483.52 187.888 604.4 234.86V562H-153l2.5-184.955Z"/></g></g><defs><linearGradient id="b" x1="1290.61" x2="2.38" y1="266.905" y2="280.918" gradientUnits="userSpaceOnUse"><stop stop-color="#fff" stop-opacity="0"/><stop offset=".245" stop-color="#fff"/><stop offset=".672" stop-color="#fff"/><stop offset="1" stop-color="#fff" stop-opacity="0"/></linearGradient><clipPath id="a"><path fill="#fff" d="M0 0h2000v560H0z"/></clipPath></defs></svg>

<svg width="2000" height="560" viewBox="0 0 2000 560" fill="none" xmlns="http://www.w3.org/2000/svg">
<g clip-path="url(#clip0_223_11358)">
<mask id="mask0_223_11358" style="mask-type:alpha" maskUnits="userSpaceOnUse" x="341" y="0" width="1782" height="554">
<rect width="1782" height="554" transform="translate(341)" fill="url(#paint0_linear_223_11358)"/>
</mask>
<g mask="url(#mask0_223_11358)">
<path d="M-30 78.789C176.587 84.0056 320 89.4983 458.34 -37.8176C857 -264.002 789.913 174.836 996.5 150.901C1158 129.5 1122.5 -141.5 1443.5 -141.5C1626 -142.5 1646.5 -131.502 1646.5 -131.502V624.998L-29 661.498L-30 78.789Z" fill="#2A2A5B"/>
<path d="M-150.5 377.045C91.26 389.837 130.04 263.312 371.8 267.11C613.56 270.908 734.439 410.825 976.199 396.033C1217.96 381.242 1338.84 186.758 1580.6 193.154C1822.36 199.551 2064.12 381.042 2185 428.014V562H-153L-150.5 377.045Z" fill="#151533"/>
</g>
</g>
<defs>
<linearGradient id="paint0_linear_223_11358" x1="1290.61" y1="266.905" x2="2.37989" y2="280.918" gradientUnits="userSpaceOnUse">
<stop stop-color="white" stop-opacity="0"/>
<stop offset="0.244792" stop-color="white"/>
<stop offset="0.671875" stop-color="white"/>
<stop offset="1" stop-color="white" stop-opacity="0"/>
</linearGradient>
<clipPath id="clip0_223_11358">
<rect width="2000" height="560" fill="white"/>
</clipPath>
</defs>
</svg>
